X: 136008
T: The IRISH WASHERWOMAN
Q: "Irish Jig."
R: Jig.
%R: jig
B: James Kerr "Merry Melodies" v.1 p.36 s.0 #8
Z: 2016 John Chambers <jc:trillian.mit.edu>
M: 6/8
L: 1/8
K: G
d/c/ |\
BGG DGG | BGB dcB | cAA EAA | cBc edc |\
BGG DGG | BGB dcB | cBc Adc | BGG G2 :|
|: ug |\
gdg gdg | gdg bag | fdf fdf | fdf agf |\
egg dgg | cgg Bgg | cBc Adc | BGG G2 :|

%%sep 1 1 500
%%sep 1 1 500

